Obsidian-SemiLight/actions/22s/format-border-set-internal-horizontal.svg

<svg viewBox="0 0 22 22" xmlns="http://www.w3.org/2000/svg"><g fill="#4d4d4d"><path d="m3 2v1 15 1h1 7 1 7 1v-1-15-1h-1-15zm1 1h7v15h-7zm8 0h7v15h-7z" fill-opacity=".1"/><path d="m4 3v7h7v-7zm8 0v7h7v-7zm-8 8v7h7v-7zm8 0v7h7v-7z" fill-opacity=".5"/><path d="m3 10v1h17v-1z"/></g></svg>

<svg xmlns="http://www.w3.org/2000/svg" viewBox="0 0 22 22">
  <defs id="defs3051">
    <style type="text/css" id="current-color-scheme">
      .ColorScheme-Text {
        color:#4d4d4d;
      }
      </style>
  </defs>
 <path 
     style="fill:currentColor;fill-opacity:0.1;stroke:none" 
     d="M 3 2 L 3 3 L 3 18 L 3 19 L 4 19 L 11 19 L 12 19 L 19 19 L 20 19 L 20 18 L 20 3 L 20 2 L 19 2 L 4 2 L 3 2 z M 4 3 L 11 3 L 11 18 L 4 18 L 4 3 z M 12 3 L 19 3 L 19 18 L 12 18 L 12 3 z "
     class="ColorScheme-Text"
     />
 <path 
     style="fill:currentColor;fill-opacity:0.5;stroke:none" 
     d="M 4 3 L 4 10 L 11 10 L 11 3 L 4 3 z M 12 3 L 12 10 L 19 10 L 19 3 L 12 3 z M 4 11 L 4 18 L 11 18 L 11 11 L 4 11 z M 12 11 L 12 18 L 19 18 L 19 11 L 12 11 z "
     class="ColorScheme-Text"
     />
 <path 
     style="fill:currentColor;fill-opacity:1.0;stroke:none" 
     d="M 3 10 L 3 11 L 20 11 L 20 10 L 3 10 z "
     class="ColorScheme-Text"
     />
</svg>
